assets/1. 1-F/Flower playing cards/Color/Flower.Playing.Cards-color.svg

<svg width="100%" height="100%" viewBox="0 0 32 32" fill="none" xmlns="http://www.w3.org/2000/svg">
<g filter="url(#filter0_ii_18_4160)">
<rect x="5" y="2.07812" width="21.9375" height="27.8438" rx="2.25" fill="url(#paint0_linear_18_4160)"/>
</g>
<path fill-rule="evenodd" clip-rule="evenodd" d="M7.52845 15.4598C7.51998 15.5345 7.51562 15.6105 7.51562 15.6875V25.3125C7.51562 26.4171 8.41106 27.3125 9.51563 27.3125H19.311C19.4147 26.7292 19.4688 26.1287 19.4688 25.5156C19.4688 19.8806 14.9007 15.3125 9.26562 15.3125C8.67343 15.3125 8.09301 15.363 7.52845 15.4598Z" fill="url(#paint1_radial_18_4160)"/>
<path fill-rule="evenodd" clip-rule="evenodd" d="M7.52845 15.4598C7.51998 15.5345 7.51562 15.6105 7.51562 15.6875V25.3125C7.51562 26.4171 8.41106 27.3125 9.51563 27.3125H19.311C19.4147 26.7292 19.4688 26.1287 19.4688 25.5156C19.4688 19.8806 14.9007 15.3125 9.26562 15.3125C8.67343 15.3125 8.09301 15.363 7.52845 15.4598Z" fill="url(#paint2_radial_18_4160)"/>
<path fill-rule="evenodd" clip-rule="evenodd" d="M7.52845 15.4598C7.51998 15.5345 7.51562 15.6105 7.51562 15.6875V25.3125C7.51562 26.4171 8.41106 27.3125 9.51563 27.3125H19.311C19.4147 26.7292 19.4688 26.1287 19.4688 25.5156C19.4688 19.8806 14.9007 15.3125 9.26562 15.3125C8.67343 15.3125 8.09301 15.363 7.52845 15.4598Z" fill="url(#paint3_radial_18_4160)"/>
<path fill-rule="evenodd" clip-rule="evenodd" d="M7.52845 15.4598C7.51998 15.5345 7.51562 15.6105 7.51562 15.6875V25.3125C7.51562 26.4171 8.41106 27.3125 9.51563 27.3125H19.311C19.4147 26.7292 19.4688 26.1287 19.4688 25.5156C19.4688 19.8806 14.9007 15.3125 9.26562 15.3125C8.67343 15.3125 8.09301 15.363 7.52845 15.4598Z" fill="url(#paint4_radial_18_4160)"/>
<g filter="url(#filter1_i_18_4160)">
<path fill-rule="evenodd" clip-rule="evenodd" d="M24.0469 18.7384V25.3125C24.0469 26.4171 23.1515 27.3125 22.0469 27.3125H12.0079C12.7098 22.3619 16.965 18.5547 22.1094 18.5547C22.7719 18.5547 23.4196 18.6178 24.0469 18.7384Z" fill="url(#paint5_radial_18_4160)"/>
<path fill-rule="evenodd" clip-rule="evenodd" d="M24.0469 18.7384V25.3125C24.0469 26.4171 23.1515 27.3125 22.0469 27.3125H12.0079C12.7098 22.3619 16.965 18.5547 22.1094 18.5547C22.7719 18.5547 23.4196 18.6178 24.0469 18.7384Z" fill="url(#paint6_radial_18_4160)"/>
<path fill-rule="evenodd" clip-rule="evenodd" d="M24.0469 18.7384V25.3125C24.0469 26.4171 23.1515 27.3125 22.0469 27.3125H12.0079C12.7098 22.3619 16.965 18.5547 22.1094 18.5547C22.7719 18.5547 23.4196 18.6178 24.0469 18.7384Z" fill="url(#paint7_radial_18_4160)"/>
<path fill-rule="evenodd" clip-rule="evenodd" d="M24.0469 18.7384V25.3125C24.0469 26.4171 23.1515 27.3125 22.0469 27.3125H12.0079C12.7098 22.3619 16.965 18.5547 22.1094 18.5547C22.7719 18.5547 23.4196 18.6178 24.0469 18.7384Z" fill="url(#paint8_radial_18_4160)"/>
</g>
<g filter="url(#filter2_iii_18_4160)">
<path fill-rule="evenodd" clip-rule="evenodd" d="M9.55625 4.39062H22.3813C23.5687 4.39062 24.5312 5.35321 24.5312 6.54063V25.4594C24.5312 26.6468 23.5687 27.6094 22.3813 27.6094H9.55625C8.36884 27.6094 7.40625 26.6468 7.40625 25.4594V6.54062C7.40625 5.35321 8.36884 4.39062 9.55625 4.39062ZM9.55625 5.14062C8.78305 5.14062 8.15625 5.76743 8.15625 6.54062V25.4594C8.15625 26.2326 8.78305 26.8594 9.55625 26.8594H22.3813C23.1544 26.8594 23.7812 26.2326 23.7812 25.4594V6.54063C23.7812 5.76743 23.1544 5.14062 22.3813 5.14062H9.55625Z" fill="#544861"/>
</g>
<circle cx="15.7812" cy="10.5078" r="4.61719" fill="url(#paint9_radial_18_4160)"/>
<circle cx="15.7812" cy="10.5078" r="4.61719" fill="url(#paint10_radial_18_4160)"/>
<defs>
<filter id="filter0_ii_18_4160" x="4.75" y="1.82812" width="22.4375" height="28.3438" filterUnits="userSpaceOnUse" color-interpolation-filters="sRGB">
<feFlood flood-opacity="0" result="BackgroundImageFix"/>
<feBlend mode="normal" in="SourceGraphic" in2="BackgroundImageFix" result="shape"/>
<feColorMatrix in="SourceAlpha" type="matrix" values="0 0 0 0 0 0 0 0 0 0 0 0 0 0 0 0 0 0 127 0" result="hardAlpha"/>
<feOffset dx="0.25" dy="-0.25"/>
<feGaussianBlur stdDeviation="0.5"/>
<feComposite in2="hardAlpha" operator="arithmetic" k2="-1" k3="1"/>
<feColorMatrix type="matrix" values="0 0 0 0 0.831373 0 0 0 0 0.2 0 0 0 0 0.454902 0 0 0 1 0"/>
<feBlend mode="normal" in2="shape" result="effect1_innerShadow_18_4160"/>
<feColorMatrix in="SourceAlpha" type="matrix" values="0 0 0 0 0 0 0 0 0 0 0 0 0 0 0 0 0 0 127 0" result="hardAlpha"/>
<feOffset dx="-0.25" dy="0.25"/>
<feGaussianBlur stdDeviation="0.5"/>
<feComposite in2="hardAlpha" operator="arithmetic" k2="-1" k3="1"/>
<feColorMatrix type="matrix" values="0 0 0 0 1 0 0 0 0 0.34902 0 0 0 0 0.662745 0 0 0 1 0"/>
<feBlend mode="normal" in2="effect1_innerShadow_18_4160" result="effect2_innerShadow_18_4160"/>
</filter>
<filter id="filter1_i_18_4160" x="12.0079" y="18.5547" width="12.289" height="8.75781" filterUnits="userSpaceOnUse" color-interpolation-filters="sRGB">
<feFlood flood-opacity="0" result="BackgroundImageFix"/>
<feBlend mode="normal" in="SourceGraphic" in2="BackgroundImageFix" result="shape"/>
<feColorMatrix in="SourceAlpha" type="matrix" values="0 0 0 0 0 0 0 0 0 0 0 0 0 0 0 0 0 0 127 0" result="hardAlpha"/>
<feOffset dx="0.25"/>
<feGaussianBlur stdDeviation="0.75"/>
<feComposite in2="hardAlpha" operator="arithmetic" k2="-1" k3="1"/>
<feColorMatrix type="matrix" values="0 0 0 0 0.211765 0 0 0 0 0.137255 0 0 0 0 0.282353 0 0 0 1 0"/>
<feBlend mode="normal" in2="shape" result="effect1_innerShadow_18_4160"/>
</filter>
<filter id="filter2_iii_18_4160" x="7.20625" y="3.99062" width="17.525" height="23.6188" filterUnits="userSpaceOnUse" color-interpolation-filters="sRGB">
<feFlood flood-opacity="0" result="BackgroundImageFix"/>
<feBlend mode="normal" in="SourceGraphic" in2="BackgroundImageFix" result="shape"/>
<feColorMatrix in="SourceAlpha" type="matrix" values="0 0 0 0 0 0 0 0 0 0 0 0 0 0 0 0 0 0 127 0" result="hardAlpha"/>
<feOffset dy="-0.4"/>
<feGaussianBlur stdDeviation="0.2"/>
<feComposite in2="hardAlpha" operator="arithmetic" k2="-1" k3="1"/>
<feColorMatrix type="matrix" values="0 0 0 0 0.333333 0 0 0 0 0.176471 0 0 0 0 0.478431 0 0 0 1 0"/>
<feBlend mode="normal" in2="shape" result="effect1_innerShadow_18_4160"/>
<feColorMatrix in="SourceAlpha" type="matrix" values="0 0 0 0 0 0 0 0 0 0 0 0 0 0 0 0 0 0 127 0" result="hardAlpha"/>
<feOffset dx="0.2"/>
<feGaussianBlur stdDeviation="0.1"/>
<feComposite in2="hardAlpha" operator="arithmetic" k2="-1" k3="1"/>
<feColorMatrix type="matrix" values="0 0 0 0 0.439216 0 0 0 0 0.403922 0 0 0 0 0.486275 0 0 0 1 0"/>
<feBlend mode="normal" in2="effect1_innerShadow_18_4160" result="effect2_innerShadow_18_4160"/>
<feColorMatrix in="SourceAlpha" type="matrix" values="0 0 0 0 0 0 0 0 0 0 0 0 0 0 0 0 0 0 127 0" result="hardAlpha"/>
<feOffset dx="-0.2"/>
<feGaussianBlur stdDeviation="0.1"/>
<feComposite in2="hardAlpha" operator="arithmetic" k2="-1" k3="1"/>
<feColorMatrix type="matrix" values="0 0 0 0 0.439216 0 0 0 0 0.403922 0 0 0 0 0.486275 0 0 0 1 0"/>
<feBlend mode="normal" in2="effect2_innerShadow_18_4160" result="effect3_innerShadow_18_4160"/>
</filter>
<linearGradient id="paint0_linear_18_4160" x1="26.5938" y1="14.75" x2="4.53125" y2="14.75" gradientUnits="userSpaceOnUse">
<stop stop-color="#F93994"/>
<stop offset="0.826651" stop-color="#F73E57"/>
</linearGradient>
<radialGradient id="paint1_radial_18_4160" cx="0" cy="0" r="1" gradientUnits="userSpaceOnUse" gradientTransform="translate(10.676 27.3125) rotate(-90) scale(7.55295 7.52345)">
<stop stop-color="#583B76"/>
<stop offset="1" stop-color="#544267"/>
</radialGradient>
<radialGradient id="paint2_radial_18_4160" cx="0" cy="0" r="1" gradientUnits="userSpaceOnUse" gradientTransform="translate(14.7049 22.5996) rotate(-121.903) scale(5.87387 6.85255)">
<stop stop-color="#625670"/>
<stop offset="1" stop-color="#625670" stop-opacity="0"/>
</radialGradient>
<radialGradient id="paint3_radial_18_4160" cx="0" cy="0" r="1" gradientUnits="userSpaceOnUse" gradientTransform="translate(14.3416 25.3736) rotate(119.461) scale(4.96862 3.24364)">
<stop offset="0.590979" stop-color="#2E1C43"/>
<stop offset="1" stop-color="#2E1C43" stop-opacity="0"/>
</radialGradient>
<radialGradient id="paint4_radial_18_4160" cx="0" cy="0" r="1" gradientUnits="userSpaceOnUse" gradientTransform="translate(11.9969 13.0888) rotate(107.557) scale(6.13077 6.10683)">
<stop stop-color="#78617C"/>
<stop offset="1" stop-color="#78617C" stop-opacity="0"/>
</radialGradient>
<radialGradient id="paint5_radial_18_4160" cx="0" cy="0" r="1" gradientUnits="userSpaceOnUse" gradientTransform="translate(22.75 26.7812) rotate(-132.51) scale(10.1743 13.9862)">
<stop offset="0.407547" stop-color="#4E3C62"/>
<stop offset="1" stop-color="#584A64"/>
</radialGradient>
<radialGradient id="paint6_radial_18_4160" cx="0" cy="0" r="1" gradientUnits="userSpaceOnUse" gradientTransform="translate(14.3125 27.75) rotate(-71.0489) scale(5.4848 3.05229)">
<stop offset="0.139725" stop-color="#685E74"/>
<stop offset="1" stop-color="#685E74" stop-opacity="0"/>
</radialGradient>
<radialGradient id="paint7_radial_18_4160" cx="0" cy="0" r="1" gradientUnits="userSpaceOnUse" gradientTransform="translate(20.6563 27.9375) rotate(-100.874) scale(11.2647 15.4852)">
<stop offset="0.676718" stop-color="#785E76" stop-opacity="0"/>
<stop offset="1" stop-color="#785E76"/>
</radialGradient>
<radialGradient id="paint8_radial_18_4160" cx="0" cy="0" r="1" gradientUnits="userSpaceOnUse" gradientTransform="translate(27.0625 25.8125) rotate(-121.442) scale(8.50689 4.29442)">
<stop offset="0.452429" stop-color="#2C1D3D"/>
<stop offset="1" stop-color="#2C1D3D" stop-opacity="0"/>
</radialGradient>
<radialGradient id="paint9_radial_18_4160" cx="0" cy="0" r="1" gradientUnits="userSpaceOnUse" gradientTransform="translate(18.2812 9.3125) rotate(143.871) scale(7.73815)">
<stop stop-color="#FFF9FF"/>
<stop offset="1" stop-color="#C3ACBB"/>
</radialGradient>
<radialGradient id="paint10_radial_18_4160" cx="0" cy="0" r="1" gradientUnits="userSpaceOnUse" gradientTransform="translate(10.4688 11.0625) rotate(4.76364) scale(4.5156 4.95272)">
<stop stop-color="#DBCCD6"/>
<stop offset="1" stop-color="#DBCCD6" stop-opacity="0"/>
</radialGradient>
</defs>
</svg>

<svg width="100%" height="100%" viewBox="0 0 32 32" xmlns="http://www.w3.org/2000/svg"><g filter="url(#a)"><rect width="21.938" height="27.844" x="5" y="2.078" fill="url(#b)" rx="2.25"/></g><path fill="url(#c)" fill-rule="evenodd" d="M7.528 15.46a2 2 0 0 0-.012.227v9.626a2 2 0 0 0 2 2h9.795a10.3 10.3 0 0 0 .158-1.797c0-5.635-4.568-10.203-10.203-10.203q-.89 0-1.738.147" clip-rule="evenodd"/><path fill="url(#d)" fill-rule="evenodd" d="M7.528 15.46a2 2 0 0 0-.012.227v9.626a2 2 0 0 0 2 2h9.795a10.3 10.3 0 0 0 .158-1.797c0-5.635-4.568-10.203-10.203-10.203q-.89 0-1.738.147" clip-rule="evenodd"/><path fill="url(#e)" fill-rule="evenodd" d="M7.528 15.46a2 2 0 0 0-.012.227v9.626a2 2 0 0 0 2 2h9.795a10.3 10.3 0 0 0 .158-1.797c0-5.635-4.568-10.203-10.203-10.203q-.89 0-1.738.147" clip-rule="evenodd"/><path fill="url(#f)" fill-rule="evenodd" d="M7.528 15.46a2 2 0 0 0-.012.227v9.626a2 2 0 0 0 2 2h9.795a10.3 10.3 0 0 0 .158-1.797c0-5.635-4.568-10.203-10.203-10.203q-.89 0-1.738.147" clip-rule="evenodd"/><g fill-rule="evenodd" clip-rule="evenodd" filter="url(#g)"><path fill="url(#h)" d="M24.047 18.738v6.575a2 2 0 0 1-2 2h-10.04c.703-4.951 4.958-8.758 10.102-8.758q.995.002 1.938.183"/><path fill="url(#i)" d="M24.047 18.738v6.575a2 2 0 0 1-2 2h-10.04c.703-4.951 4.958-8.758 10.102-8.758q.995.002 1.938.183"/><path fill="url(#j)" d="M24.047 18.738v6.575a2 2 0 0 1-2 2h-10.04c.703-4.951 4.958-8.758 10.102-8.758q.995.002 1.938.183"/><path fill="url(#k)" d="M24.047 18.738v6.575a2 2 0 0 1-2 2h-10.04c.703-4.951 4.958-8.758 10.102-8.758q.995.002 1.938.183"/></g><g filter="url(#l)"><path fill="#544861" fill-rule="evenodd" d="M9.556 4.39h12.825a2.15 2.15 0 0 1 2.15 2.15v18.92a2.15 2.15 0 0 1-2.15 2.15H9.556a2.15 2.15 0 0 1-2.15-2.15V6.54a2.15 2.15 0 0 1 2.15-2.15m0 .75a1.4 1.4 0 0 0-1.4 1.4v18.92a1.4 1.4 0 0 0 1.4 1.4h12.825a1.4 1.4 0 0 0 1.4-1.4V6.54a1.4 1.4 0 0 0-1.4-1.4z" clip-rule="evenodd"/></g><circle cx="15.781" cy="10.508" r="4.617" fill="url(#m)"/><circle cx="15.781" cy="10.508" r="4.617" fill="url(#n)"/><defs><radialGradient id="c" cx="0" cy="0" r="1" gradientTransform="matrix(0 -7.55295 7.52345 0 10.676 27.313)" gradientUnits="userSpaceOnUse"><stop stop-color="#583B76"/><stop offset="1" stop-color="#544267"/></radialGradient><radialGradient id="d" cx="0" cy="0" r="1" gradientTransform="rotate(-121.903 13.629 7.216)scale(5.87387 6.85255)" gradientUnits="userSpaceOnUse"><stop stop-color="#625670"/><stop offset="1" stop-color="#625670" stop-opacity="0"/></radialGradient><radialGradient id="e" cx="0" cy="0" r="1" gradientTransform="matrix(-2.44372 4.32613 -2.8242 -1.59532 14.342 25.374)" gradientUnits="userSpaceOnUse"><stop offset=".591" stop-color="#2E1C43"/><stop offset="1" stop-color="#2E1C43" stop-opacity="0"/></radialGradient><radialGradient id="f" cx="0" cy="0" r="1" gradientTransform="rotate(107.557 1.205 10.938)scale(6.13077 6.10683)" gradientUnits="userSpaceOnUse"><stop stop-color="#78617C"/><stop offset="1" stop-color="#78617C" stop-opacity="0"/></radialGradient><radialGradient id="h" cx="0" cy="0" r="1" gradientTransform="matrix(-6.87497 -7.50008 10.31006 -9.45074 22.75 26.781)" gradientUnits="userSpaceOnUse"><stop offset=".408" stop-color="#4E3C62"/><stop offset="1" stop-color="#584A64"/></radialGradient><radialGradient id="i" cx="0" cy="0" r="1" gradientTransform="matrix(1.78125 -5.1875 2.88684 .99126 14.313 27.75)" gradientUnits="userSpaceOnUse"><stop offset=".14" stop-color="#685E74"/><stop offset="1" stop-color="#685E74" stop-opacity="0"/></radialGradient><radialGradient id="j" cx="0" cy="0" r="1" gradientTransform="rotate(-100.874 21.869 5.436)scale(11.2647 15.4852)" gradientUnits="userSpaceOnUse"><stop offset=".677" stop-color="#785E76" stop-opacity="0"/><stop offset="1" stop-color="#785E76"/></radialGradient><radialGradient id="k" cx="0" cy="0" r="1" gradientTransform="matrix(-4.4375 -7.25781 3.66386 -2.24012 27.063 25.813)" gradientUnits="userSpaceOnUse"><stop offset=".452" stop-color="#2C1D3D"/><stop offset="1" stop-color="#2C1D3D" stop-opacity="0"/></radialGradient><radialGradient id="m" cx="0" cy="0" r="1" gradientTransform="rotate(143.871 7.622 7.638)scale(7.73815)" gradientUnits="userSpaceOnUse"><stop stop-color="#FFF9FF"/><stop offset="1" stop-color="#C3ACBB"/></radialGradient><radialGradient id="n" cx="0" cy="0" r="1" gradientTransform="matrix(4.5 .375 -.4113 4.93561 10.469 11.063)" gradientUnits="userSpaceOnUse"><stop stop-color="#DBCCD6"/><stop offset="1" stop-color="#DBCCD6" stop-opacity="0"/></radialGradient><filter id="a" width="22.438" height="28.344" x="4.75" y="1.828" color-interpolation-filters="sRGB" filterUnits="userSpaceOnUse"><feFlood flood-opacity="0" result="BackgroundImageFix"/><feBlend in="SourceGraphic" in2="BackgroundImageFix" result="shape"/><feColorMatrix in="SourceAlpha" result="hardAlpha" values="0 0 0 0 0 0 0 0 0 0 0 0 0 0 0 0 0 0 127 0"/><feOffset dx=".25" dy="-.25"/><feGaussianBlur stdDeviation=".5"/><feComposite in2="hardAlpha" k2="-1" k3="1" operator="arithmetic"/><feColorMatrix values="0 0 0 0 0.831373 0 0 0 0 0.2 0 0 0 0 0.454902 0 0 0 1 0"/><feBlend in2="shape" result="effect1_innerShadow_18_4160"/><feColorMatrix in="SourceAlpha" result="hardAlpha" values="0 0 0 0 0 0 0 0 0 0 0 0 0 0 0 0 0 0 127 0"/><feOffset dx="-.25" dy=".25"/><feGaussianBlur stdDeviation=".5"/><feComposite in2="hardAlpha" k2="-1" k3="1" operator="arithmetic"/><feColorMatrix values="0 0 0 0 1 0 0 0 0 0.34902 0 0 0 0 0.662745 0 0 0 1 0"/><feBlend in2="effect1_innerShadow_18_4160" result="effect2_innerShadow_18_4160"/></filter><filter id="g" width="12.289" height="8.758" x="12.008" y="18.555" color-interpolation-filters="sRGB" filterUnits="userSpaceOnUse"><feFlood flood-opacity="0" result="BackgroundImageFix"/><feBlend in="SourceGraphic" in2="BackgroundImageFix" result="shape"/><feColorMatrix in="SourceAlpha" result="hardAlpha" values="0 0 0 0 0 0 0 0 0 0 0 0 0 0 0 0 0 0 127 0"/><feOffset dx=".25"/><feGaussianBlur stdDeviation=".75"/><feComposite in2="hardAlpha" k2="-1" k3="1" operator="arithmetic"/><feColorMatrix values="0 0 0 0 0.211765 0 0 0 0 0.137255 0 0 0 0 0.282353 0 0 0 1 0"/><feBlend in2="shape" result="effect1_innerShadow_18_4160"/></filter><filter id="l" width="17.525" height="23.619" x="7.206" y="3.991" color-interpolation-filters="sRGB" filterUnits="userSpaceOnUse"><feFlood flood-opacity="0" result="BackgroundImageFix"/><feBlend in="SourceGraphic" in2="BackgroundImageFix" result="shape"/><feColorMatrix in="SourceAlpha" result="hardAlpha" values="0 0 0 0 0 0 0 0 0 0 0 0 0 0 0 0 0 0 127 0"/><feOffset dy="-.4"/><feGaussianBlur stdDeviation=".2"/><feComposite in2="hardAlpha" k2="-1" k3="1" operator="arithmetic"/><feColorMatrix values="0 0 0 0 0.333333 0 0 0 0 0.176471 0 0 0 0 0.478431 0 0 0 1 0"/><feBlend in2="shape" result="effect1_innerShadow_18_4160"/><feColorMatrix in="SourceAlpha" result="hardAlpha" values="0 0 0 0 0 0 0 0 0 0 0 0 0 0 0 0 0 0 127 0"/><feOffset dx=".2"/><feGaussianBlur stdDeviation=".1"/><feComposite in2="hardAlpha" k2="-1" k3="1" operator="arithmetic"/><feColorMatrix values="0 0 0 0 0.439216 0 0 0 0 0.403922 0 0 0 0 0.486275 0 0 0 1 0"/><feBlend in2="effect1_innerShadow_18_4160" result="effect2_innerShadow_18_4160"/><feColorMatrix in="SourceAlpha" result="hardAlpha" values="0 0 0 0 0 0 0 0 0 0 0 0 0 0 0 0 0 0 127 0"/><feOffset dx="-.2"/><feGaussianBlur stdDeviation=".1"/><feComposite in2="hardAlpha" k2="-1" k3="1" operator="arithmetic"/><feColorMatrix values="0 0 0 0 0.439216 0 0 0 0 0.403922 0 0 0 0 0.486275 0 0 0 1 0"/><feBlend in2="effect2_innerShadow_18_4160" result="effect3_innerShadow_18_4160"/></filter><linearGradient id="b" x1="26.594" x2="4.531" y1="14.75" y2="14.75" gradientUnits="userSpaceOnUse"><stop stop-color="#F93994"/><stop offset=".827" stop-color="#F73E57"/></linearGradient></defs></svg>
